!!!SOCIAL_FUNCTION:	songs connected with the treatment of the sick
!!!PDT:	1932
!!!OTL: No_62_Juggler's_Song_(b).krn
!!!REG: Wisconsin
!!!LANG: Non-Tone
!!!LING_GROUP: Algonquin
**kern
*staff1
=1-
*clefF4
*k[f#c#g#d#a#]
*M2/4
4r
8r
8c#\
=2
4..c#\
16B\
=3||
*M3/4
4B\
4B\
8r
8B\
=4
2B\
8.r
16B\
=5||
*M2/4
4.B\
8B\
=6
(8.B\L
16G#\Jk)
[4G#\
=7||
*M3/4
2G#\]
8r
8c#\
=8||
*M2/4
4..c#\
16c#\
=9
4c#\
4c#\
=10||
*M3/4
2B\
8r
8A#\
=11||
*M2/4
(8.G#\L
16F#\Jk)
[4F#\
=12
4F#\]
8r
8G#\
=13||
*M3/4
4..G#\
16F#\
4F#\
=14
[2.F#\
=15||
*M2/4
4F#\]
8r
8F#\
=16
4..F#\
16B\
=17
4B\
[4B\
=18||
*M3/4
2B\]
8r
8A#\
=19||
*M2/4
4G#\
16F#\
16r
8F#\
=20
4.F#\
8F#\
=21||
*M3/4
8.F#\L
16D#\Jk
4D#\
8r
8G#\
=22||
*M2/4
4..G#\
16F#\
=23
4F#\
4G#\
=24||
*M3/4
[2F#\
8.F#\L]
16D#\Jk
=25
(8.C#/L
16BB/Jk)
4BB/
8r
8D#\
=26
(4C#/
8BB/L)
8BB/J
8.BB/L
16C#/Jk
=27
[2.BB/
=28
2BB/]
4r
==
*-
